X: 28255
T: Mrs. Joyscream
R: reel
M: 4/4
K: Dmajor
A|:BAFA d3d|cdc2- cAFA|BAd2 G3G|cdcd cAFA|
[1 BAED C3E|A,3E CEA,E|G,2BA BAEA|BAcd cAFA:|
[2 BAEA c3d|B2Bd ceAc|d2ed edcd|edfd gfeg ]|
|:a3g fda2-|agfd fgfd|g3g fdg2-|ggfd (3fgf ed|
edAd e3d|A/A/Ag2 edcA|BGGB cdcd|1 edef gfeg:|2 eded cAF||

